svg/fluentui-system-icons/ic_fluent_puzzle_piece_24_regular.svg

<svg width="24" height="24" viewBox="0 0 24 24" fill="none" xmlns="http://www.w3.org/2000/svg">
<path d="M12.9994 2.00391C14.5971 2.00391 15.9031 3.25283 15.9935 4.82294L15.9984 4.99867L18.2494 4.99967C19.1166 4.99967 19.8365 5.63039 19.9753 6.45825L19.9936 6.6063L19.9994 6.74985L19.9985 10.5009L18.0009 10.501C17.2573 10.501 16.6347 11.0442 16.521 11.74L16.5057 11.8722L16.5009 12.001C16.5009 12.7446 17.0441 13.3672 17.74 13.4809L17.8721 13.4962L18.0009 13.501L19.9985 13.5009L19.9994 17.2523C19.9994 18.1705 19.2923 18.9235 18.3929 18.9965L18.2494 19.0023L15.9984 19.0017L15.9944 19.1743C15.91 20.6301 14.7875 21.8075 13.3562 21.9771L13.1757 21.993L12.9994 21.9981C11.4018 21.9981 10.0958 20.7491 10.0045 19.1776L9.99945 19.0017L7.74945 19.0023C6.88228 19.0023 6.16243 18.3716 6.02362 17.544L6.00525 17.396L5.99945 17.2525L5.99845 15.0007L5.83545 14.9959C4.37962 14.9115 3.2023 13.7891 3.03271 12.3577L3.01681 12.1773L3.01172 12.001C3.01172 10.4033 4.26064 9.09732 5.83538 9.00607L5.99845 9.00067L5.99945 6.74967C5.99945 5.88251 6.63017 5.16266 7.45776 5.02385L7.60576 5.00547L7.74926 4.99967L9.99845 4.99867L10.0045 4.82763C10.0889 3.37181 11.2114 2.19449 12.6427 2.0249L12.8232 2.009L12.9994 2.00391ZM12.9994 3.50391C12.2198 3.50391 11.579 4.09879 11.5063 4.86006L11.4994 5.00464L11.498 6.49872L7.74945 6.49967C7.6311 6.49967 7.53196 6.5819 7.50605 6.69246L7.49945 6.74985L7.49854 10.5008L6.01172 10.501C5.18329 10.501 4.51172 11.1726 4.51172 12.001C4.51172 12.7807 5.10661 13.4214 5.8672 13.4941L6.01165 13.501L7.49854 13.5008L7.49945 17.2523C7.49945 17.3706 7.58168 17.4698 7.69207 17.4957L7.74935 17.5023L11.498 17.5018L11.4994 18.9981C11.4994 19.8265 12.171 20.4981 12.9994 20.4981C13.7791 20.4981 14.4199 19.9032 14.4926 19.1431L14.4994 18.9988L14.498 17.5018L18.2494 17.5023C18.3678 17.5023 18.4669 17.4201 18.4928 17.3097L18.4994 17.2525L18.4984 14.9997L17.9757 15.0006L17.7963 14.9941C16.285 14.8919 15.0922 13.6766 15.0063 12.1529L15.0013 11.9757L15.0078 11.7963C15.11 10.285 16.3253 9.09226 17.8264 9.00598L18.0009 9.00098L18.4984 9.00067L18.4994 6.74967C18.4994 6.65499 18.4468 6.57261 18.3692 6.53017L18.3067 6.50627L18.2493 6.49967L14.498 6.49872L14.4994 5.00391C14.4994 4.17548 13.8279 3.50391 12.9994 3.50391Z" fill="#212121"/>
</svg>

<svg xmlns="http://www.w3.org/2000/svg" width="24" height="24"><path d="M13 2.004a2.998 2.998 0 0 1 2.993 2.819l.005.176h2.251a1.75 1.75 0 0 1 1.726 1.46l.019.147.005.144v3.75L18 10.502a1.5 1.5 0 0 0-1.48 1.239l-.015.132-.005.129a1.5 1.5 0 0 0 1.239 1.48l.132.015.129.005h1.997l.003 3.75a1.75 1.75 0 0 1-1.606 1.745l-.144.005H16l-.005.172a3.001 3.001 0 0 1-2.638 2.803l-.18.016-.177.005a3 3 0 0 1-2.995-2.82L10 19.002H7.75a1.75 1.75 0 0 1-1.725-1.458l-.019-.148L6 17.253V15l-.164-.005a3 3 0 0 1-2.802-2.638l-.016-.18L3.012 12a3 3 0 0 1 2.823-2.995L5.998 9 6 6.75c0-.867.631-1.587 1.459-1.726l.148-.019L7.749 5 10 4.999l.005-.171a3 3 0 0 1 2.639-2.803l.18-.016.176-.005Zm0 1.5a1.5 1.5 0 0 0-1.494 1.356l-.007.145-.001 1.494H7.749a.25.25 0 0 0-.243.193L7.5 6.75v3.75l-1.487.001a1.5 1.5 0 0 0-.145 2.993l.145.007H7.5v3.751a.25.25 0 0 0 .193.244l.057.006h3.749l.001 1.496a1.5 1.5 0 0 0 2.994.145l.006-.144-.001-1.497h3.751a.25.25 0 0 0 .244-.192l.006-.057V15h-.523l-.18-.006a3.003 3.003 0 0 1-2.79-2.841l-.005-.177.007-.18a3 3 0 0 1 2.818-2.79l.175-.005h.497L18.5 6.75a.25.25 0 0 0-.13-.22l-.062-.024-.058-.006-3.751-.001.001-1.495a1.5 1.5 0 0 0-1.5-1.5Z"/></svg>
